theme/icons/file-document.svg

<svg fill="none" height="24" width="24" xmlns="http://www.w3.org/2000/svg"><g fill="#f4f4f7"><path d="m7 18h10v-2h-10zm10-4h-10v-2h10zm-10-4h4v-2h-4z"/><path clip-rule="evenodd" d="m6 2a3 3 0 0 0 -3 3v14a3 3 0 0 0 3 3h12a3 3 0 0 0 3-3v-10a7 7 0 0 0 -7-7zm0 2h7v5h6v10a1 1 0 0 1 -1 1h-12a1 1 0 0 1 -1-1v-14a1 1 0 0 1 1-1zm9 .1a5.009 5.009 0 0 1 3.584 2.9h-3.584z" fill-rule="evenodd"/></g></svg>

<svg fill="none" height="24" width="24" xmlns="http://www.w3.org/2000/svg">
    <g fill="#f4f4f7">
        <path d="M7 18h10v-2H7zm10-4H7v-2h10zM7 10h4V8H7z"/>
        <path clip-rule="evenodd" d="M6 2a3 3 0 0 0-3 3v14a3 3 0 0 0 3 3h12a3 3 0 0 0 3-3V9a7 7 0 0 0-7-7zm0 2h7v5h6v10a1 1 0 0 1-1 1H6a1 1 0 0 1-1-1V5a1 1 0 0 1 1-1zm9 .1A5.009 5.009 0 0 1 18.584 7H15z" fill-rule="evenodd"/>
    </g>
</svg>
